X: 5
T: The Rossmore Jetty
C: Father P.J. Kelly
M: 4/4
L: 1/8
R: reel
K:G Major
|: GA |\
B2 GB AGEG | DGGF G2 AB | c2 AB cBAG | EGAG FDGA |
B2 GB AGEG | DGGF G2 A/B/c | d2 Bd gdBd | cAFA G2 :|
|: A/B/c |\
d2 Bd gdBd | d2 Bd gdBd | e2 ce agfe | defg agfe |
d2 Bd gdBd | d2 Bd gdBd | c2 Ac B2 GB | AGEF G2 :|
